src/assets/filled/Lock1.svg

<?xml version="1.0" encoding="UTF-8"?>
<svg width="24" height="24" viewBox="0 0 24 24" xmlns="http://www.w3.org/2000/svg">
 <path d="m18.75 8v2.1c-0.44-0.06-0.94-0.09-1.5-0.1v-2c0-3.15-0.89-5.25-5.25-5.25s-5.25 2.1-5.25 5.25v2c-0.56 0.01-1.06 0.04-1.5 0.1v-2.1c0-2.9 0.7-6.75 6.75-6.75s6.75 3.85 6.75 6.75z"/>
 <path d="m18.75 10.1c-0.44-0.06-0.94-0.09-1.5-0.1h-10.5c-0.56 0.01-1.06 0.04-1.5 0.1-2.55 0.31-3.25 1.56-3.25 4.9v2c0 4 1 5 5 5h10c4 0 5-1 5-5v-2c0-3.34-0.7-4.59-3.25-4.9zm-10.04 6.61c-0.19 0.18-0.45 0.29-0.71 0.29-0.13 0-0.26-0.03-0.38-0.08-0.13-0.05-0.23-0.12-0.33-0.21-0.18-0.19-0.29-0.45-0.29-0.71 0-0.13 0.03-0.26 0.08-0.38s0.12-0.23 0.21-0.33c0.1-0.09 0.2-0.16 0.33-0.21 0.37-0.16 0.81-0.07 1.09 0.21 0.09 0.1 0.16 0.21 0.21 0.33s0.08 0.25 0.08 0.38c0 0.26-0.11 0.52-0.29 0.71zm4.21-0.33c-0.05 0.12-0.12 0.23-0.21 0.33-0.19 0.18-0.45 0.29-0.71 0.29-0.27 0-0.52-0.11-0.71-0.29-0.09-0.1-0.16-0.21-0.21-0.33s-0.08-0.25-0.08-0.38c0-0.27 0.11-0.52 0.29-0.71 0.37-0.37 1.04-0.37 1.42 0 0.18 0.19 0.29 0.44 0.29 0.71 0 0.13-0.03 0.26-0.08 0.38zm3.79 0.33c-0.19 0.18-0.45 0.29-0.71 0.29s-0.52-0.11-0.71-0.29c-0.18-0.19-0.29-0.44-0.29-0.71s0.11-0.52 0.29-0.71c0.38-0.37 1.05-0.37 1.42 0 0.04 0.05 0.08 0.1 0.12 0.16 0.04 0.05 0.07 0.11 0.09 0.17 0.03 0.06 0.05 0.12 0.06 0.18 0.01 0.07 0.02 0.14 0.02 0.2 0 0.26-0.11 0.52-0.29 0.71z"/>
</svg>

<svg width="24" height="24" viewBox="0 0 24 24"  xmlns="http://www.w3.org/2000/svg">
<path d="M18.75 8V10.1C18.31 10.04 17.81 10.01 17.25 10V8C17.25 4.85 16.36 2.75 12 2.75C7.64 2.75 6.75 4.85 6.75 8V10C6.19 10.01 5.69 10.04 5.25 10.1V8C5.25 5.1 5.95 1.25 12 1.25C18.05 1.25 18.75 5.1 18.75 8Z" />
<path d="M18.75 10.1C18.31 10.04 17.81 10.01 17.25 10H6.75C6.19 10.01 5.69 10.04 5.25 10.1C2.7 10.41 2 11.66 2 15V17C2 21 3 22 7 22H17C21 22 22 21 22 17V15C22 11.66 21.3 10.41 18.75 10.1ZM8.71 16.71C8.52 16.89 8.26 17 8 17C7.87 17 7.74 16.97 7.62 16.92C7.49 16.87 7.39 16.8 7.29 16.71C7.11 16.52 7 16.26 7 16C7 15.87 7.03 15.74 7.08 15.62C7.13 15.5 7.2 15.39 7.29 15.29C7.39 15.2 7.49 15.13 7.62 15.08C7.99 14.92 8.43 15.01 8.71 15.29C8.8 15.39 8.87 15.5 8.92 15.62C8.97 15.74 9 15.87 9 16C9 16.26 8.89 16.52 8.71 16.71ZM12.92 16.38C12.87 16.5 12.8 16.61 12.71 16.71C12.52 16.89 12.26 17 12 17C11.73 17 11.48 16.89 11.29 16.71C11.2 16.61 11.13 16.5 11.08 16.38C11.03 16.26 11 16.13 11 16C11 15.73 11.11 15.48 11.29 15.29C11.66 14.92 12.33 14.92 12.71 15.29C12.89 15.48 13 15.73 13 16C13 16.13 12.97 16.26 12.92 16.38ZM16.71 16.71C16.52 16.89 16.26 17 16 17C15.74 17 15.48 16.89 15.29 16.71C15.11 16.52 15 16.27 15 16C15 15.73 15.11 15.48 15.29 15.29C15.67 14.92 16.34 14.92 16.71 15.29C16.75 15.34 16.79 15.39 16.83 15.45C16.87 15.5 16.9 15.56 16.92 15.62C16.95 15.68 16.97 15.74 16.98 15.8C16.99 15.87 17 15.94 17 16C17 16.26 16.89 16.52 16.71 16.71Z" />
</svg>
